!!!COM: Josephine Lang
!!!CNT: Deutsch
!!!TXO: Deutsch
!!!OTL: "An den See"
!!!LYR: Reinhold
!!!OPS: Op. 14
!!!ONM: No. 4
!!!ENC: Alyona Dzerbina, edited by LVH
!!!YOR: Josephine Lang: Selected Songs
!!!YOR: Da Capo Press, 1982
!!!ODT: 1840/
!!NB: Vocal melody only encoded.
**kern	**text
*staff1	*staff1
*clefG2	*
*k[f#c#g#d#]	*
*M2/4	*
*MM[Allegretto]	*
2r	.
=2	=2
2r	.
=3	=3
2r	.
=4	=4
2r	.
=5	=5
2r	.
=6	=6
2r	.
=7	=7
2r	.
=8	=8
2r	.
=9	=9
2r	.
=10	=10
2r	.
=11	=11
2r	.
=12	=12
2r	.
=13	=13
2r	.
=14	=14
2r	.
=15	=15
2r	.
=16	=16
2r	.
=17	=17
2r	.
=18	=18
2r	.
=19	=19
2r	.
=20	=20
2r	.
=21	=21
2r	.
=22	=22
2r	.
=23	=23
2r	.
=24	=24
2r	.
=25	=25
2r	.
=26	=26
2r	.
=27	=27
2r	.
=28	=28
2r	.
=29	=29
2r	.
=30	=30
2r	.
=31	=31
2r	.
=32	=32
2r	.
=33	=33
2r	.
=34	=34
2r	.
=35!|:	=35!|:
{4e	{Um
4e	dies
=36	=36
4b	Schiff-
4b	-lein
=37	=37
2ee	schmie-
=38	=38
2b	-ge,
=39	=39
4f#	hol-
4f#	-der
=40	=40
(4cc#	See,
8a)	|
8g#	dich
=41	=41
2f#}	sacht,}
=42	=42
2r	.
=43	=43
{4e	{from-
4e	-mer
=44	=44
4b	Lie-
4b	-be
=45	=45
2ee	Wie-
=46	=46
2b	-ge,
=47	=47
4ee	nimm
4dd#	sie
=48	=48
4cc#	wohl
4b	in
=49	=49
(2cc#	Acht,
=50	=50
2dd#)}	|}
=51	=51
{4.cc#	{nimm
8b	sie
=52	=52
(4a#	wohl
8.ee)	|
16a#	in
=53	=53
2b}	Acht!}
=54	=54
2r	.
=55	=55
*k[f#]	*
{4b	{Dei-
4b	-ne
=56	=56
4b	Wel-
4a	-len
=57	=57
2ee	rau-
=58	=58
2b	-schen,
=59	=59
4.e	re-
8e	-de
=60	=60
4g	nicht
8f#	so
8e	|
=61	=61
2d}	laut!}
=62	=62
2r	.
=63	=63
{4b	{Lass
4b	mich
=64	=64
(4b	ihr
8cc)	|
8b	nur
=65	=65
([2ee	lau-
=66	=66
4ee]	|
8cc)	|
8a	-schen,
=67	=67
4dd	die
8cc	mir-
8b	|
=68	=68
4a	-viel
8b	ver-
8cc	|
=69	=69
2b}	-traut!}
=70	=70
2r	.
=71	=71
{4cc	{Dei-
4b	-ne
=72	=72
4a	Wel-
4g	-len
=73	=73
2a	rau-
=74	=74
2dd	-schen,
=75	=75
4d	spie-
4e	-geln
=76	=76
(4f#	uns
8g)	|
8a	zu-
=77	=77
(2a#	-ru2ck
=78	=78
4b)}	|}
4r	.
=79	=79
{4cc	{tau-
4b	-send
=80	=80
4a	fach
4g	die
=81	=81
2a	feuch-
=82	=82
2dd	-ten
=83	=83
4.b	Au-
8b	-gen
=84	=84
4ee	vol-
4ee	-ler
=85	=85
[2dd#	Glu2ck,
=86	=86
2dd#]}	|}
=87	=87
{([2b	{tau-
=88	=88
2b])	|
=89	=89
[2ee	|
=90	=90
8ee]	|
8cc#	|
8b	-send
8a	|
=91	=91
(4g#	fach
4b)	|
=92	=92
(8a	vol-
16b	|
16a	|
8.g#)	|
16f#	-ler
=93	=93
2e}	Gluck!}
=94	=94
2r	.
=95	=95
*k[f#c#g#d#]	*
{4b	{Dei-
4b	-ne
=96	=96
4b	Wel-
4b	-len
=97	=97
2ff#	rau-
=98	=98
2ee	-schen,
=99	=99
4.b	re-
8b	-de
=100	=100
4.b	nicht
8b	so
=101	=101
(2ff#	laut,
=102	=102
2ee)}	|}
=103	=103
{[2b	{re-
=104	=104
4b]	|
4ee	-de
=105	=105
[2b	nicht
=106	=106
4b]	|
4ee	so
=107	=107
[2b	laut,
=108	=108
4b]}	|}
8r	.
{8cc#	{so
=109	=109
[2b	laut,
=110	=110
2b]}	|}
=111	=111
{4e	{dei-
4e	-ne
=112	=112
4b	Wel-
4b	-len
=113	=113
2ee	rau-
=114	=114
2a#	-schen
=115	=115
4b	re-
8a	-de
8g#	|
=116	=116
4f#	nicht
4a	so
=117	=117
[2g#	laut,
=118	=118
4g#]}	|}
4r	.
=119	=119
{[2ddn	{lass
=120	=120
4.dd]	|
8cc#	mich
=121	=121
[2ddn	ihr
=122	=122
4dd]	|
4cc#	nur
=123	=123
[2ee	lau-
=124	=124
2ee_	|
=125	=125
2ee]	|
=126	=126
4a#}	-schen,}
4r	.
=127	=127
{[2b	{die
=128	=128
2b_	|
=129	=129
2b]	|
=130	=130
(2b	mir
=131	=131
4b	viel
4gg#	|
=132	=132
4ff#	|
4ee	|
=133	=133
4dd#	|
4cc#)	|
=134	=134
4.b	|
8a	ja
=135	=135
(2g#	viel
=136	=136
[2b)	|
=137	=137
2b]	|
=138	=138
(bq	|
4a	|
6g#	|
12f#)	ver-
=139	=139
2e}	-traut!}
=140	=140
2r	.
=141	=141
2r	.
=142	=142
2r	.
=143	=143
2r	.
=144	=144
2r	.
=145	=145
2r	.
=146	=146
2r	.
=147	=147
2r	.
=148	=148
2r	.
=149	=149
2r	.
=150	=150
2r	.
=151	=151
2r	.
=152	=152
2r	.
=153	=153
2r	.
=154	=154
2r	.
=155	=155
2r	.
=156	=156
2r	.
=157	=157
2r	.
=158	=158
2r	.
=159	=159
2r	.
=160	=160
2r	.
=161	=161
2r	.
=162	=162
2r	.
=163	=163
2r	.
=164	=164
2r	.
=165	=165
2r	.
=166	=166
2r	.
=167	=167
2r	.
=168	=168
2r	.
=169	=169
2r	.
=170	=170
2r	.
=171:|!	=171:|!
2r	.
==	==
*-	*-
